X:5121
T:The Rough Crossing
M:6/8
R:Jig
L:1/8
Q:180
C:Aidan Crossey
K:Bm
|:FBB dBB|fBB dBB|FBB dBB|ABA AFE|
FBB dBB|fBB dBB|efe dBA|FBB B3:||
|:fb/b/b eaa|faf edB|fb/b/b eaa|fb/b/b b3|
fb/b/b eaa|faf edB|FBB dBB|ABA B3:||
